src/lib/packages/icons/src/assets/filled/apple-pay.svg

<svg width="24" height="24" viewBox="0 0 24 24" fill="none" xmlns="http://www.w3.org/2000/svg">
<path d="M12.32 10.85C12.32 11.39 11.99 11.7 11.41 11.7H10.65V10.01H11.41C11.98 10.01 12.31 10.32 12.31 10.86L12.32 10.85ZM13.8 12.81C13.8 13.07 14.02 13.24 14.38 13.24C14.83 13.24 15.17 12.96 15.17 12.56V12.32L14.43 12.37C14.02 12.39 13.8 12.55 13.8 12.82V12.81ZM21 8V16C21 18 20 19 18 19H6C4 19 3 18 3 16V8C3 6 4 5 6 5H18C20 5 21 6 21 8ZM6.87 10.19C7.13 10.21 7.4 10.06 7.56 9.85999C7.72 9.65999 7.82999 9.39 7.79999 9.12C7.56999 9.13 7.27999 9.27 7.12 9.47C6.97 9.64 6.84 9.91999 6.87 10.18V10.19ZM8.76001 12.52C8.76001 12.52 8.15001 12.28 8.14001 11.58C8.14001 10.99 8.62001 10.72 8.64001 10.7C8.37001 10.3 7.93998 10.25 7.78998 10.24C7.40998 10.22 7.08002 10.46 6.90002 10.46C6.72002 10.46 6.44001 10.25 6.14001 10.26C5.75001 10.26 5.39 10.49 5.19 10.84C4.78 11.55 5.07998 12.59 5.47998 13.16C5.66998 13.44 5.91002 13.76 6.21002 13.75C6.50002 13.74 6.61002 13.56 6.96002 13.56C7.31002 13.56 7.40997 13.75 7.71997 13.74C8.03997 13.74 8.23999 13.46 8.42999 13.17C8.64999 12.85 8.74 12.53 8.75 12.52H8.76001ZM12.99 10.85C12.99 10.02 12.41 9.45001 11.59 9.45001H9.98999V13.71H10.65V12.25H11.57C12.41 12.25 12.99 11.68 12.99 10.84V10.85ZM15.8 11.59C15.8 10.97 15.31 10.58 14.55 10.58C13.85 10.58 13.33 10.98 13.31 11.53H13.91C13.96 11.27 14.2 11.1 14.54 11.1C14.94 11.1 15.17 11.29 15.17 11.64V11.88L14.34 11.93C13.57 11.98 13.16 12.29 13.16 12.84C13.16 13.39 13.59 13.76 14.2 13.76C14.62 13.76 15 13.55 15.18 13.22H15.19V13.73H15.8V11.61V11.59ZM18.99 10.62H18.32L17.54 13.14H17.53L16.75 10.62H16.06L17.18 13.72L17.12 13.91C17.02 14.23 16.85 14.35 16.56 14.35C16.51 14.35 16.41 14.35 16.37 14.34V14.85C16.37 14.85 16.57 14.87 16.62 14.87C17.27 14.87 17.57 14.62 17.83 13.88L18.99 10.62Z" fill="currentColor"/>
</svg>

<svg xmlns="http://www.w3.org/2000/svg" width="24" height="24" fill="none"><path fill="currentColor" d="M12.32 10.85c0 .54-.33.85-.91.85h-.76v-1.69h.76c.57 0 .9.31.9.85l.01-.01Zm1.48 1.96c0 .26.22.43.58.43.45 0 .79-.28.79-.68v-.24l-.74.05c-.41.02-.63.18-.63.45v-.01ZM21 8v8c0 2-1 3-3 3H6c-2 0-3-1-3-3V8c0-2 1-3 3-3h12c2 0 3 1 3 3ZM6.87 10.19c.26.02.53-.13.69-.33.16-.2.27-.47.24-.74-.23.01-.52.15-.68.35-.15.17-.28.45-.25.71v.01Zm1.89 2.33s-.61-.24-.62-.94c0-.59.48-.86.5-.88-.27-.4-.7-.45-.85-.46-.38-.02-.71.22-.89.22-.18 0-.46-.21-.76-.2-.39 0-.75.23-.95.58-.41.71-.11 1.75.29 2.32.19.28.43.6.73.59.29-.01.4-.19.75-.19s.45.19.76.18c.32 0 .52-.28.71-.57.22-.32.31-.64.32-.65h.01Zm4.23-1.67c0-.83-.58-1.4-1.4-1.4h-1.6v4.26h.66v-1.46h.92c.84 0 1.42-.57 1.42-1.41v.01Zm2.81.74c0-.62-.49-1.01-1.25-1.01-.7 0-1.22.4-1.24.95h.6c.05-.26.29-.43.63-.43.4 0 .63.19.63.54v.24l-.83.05c-.77.05-1.18.36-1.18.91s.43.92 1.04.92c.42 0 .8-.21.98-.54h.01v.51h.61v-2.14Zm3.19-.97h-.67l-.78 2.52h-.01l-.78-2.52h-.69l1.12 3.1-.06.19c-.1.32-.27.44-.56.44-.05 0-.15 0-.19-.01v.51s.2.02.25.02c.65 0 .95-.25 1.21-.99l1.16-3.26Z"/></svg>
